X:733
M:C
L:1/8
K:B_
|:d|B<fd<f B<fd<f|F<cA<c F<cA<c|B<fd<f B<fd<f|b/a/g/f/ g>e d<B~B:|
|:F|D<B,F<B, G<B,F<B,|D>B, G/F/E/D/ E<C C>F|D<B,F<B, G<B,F>A|
|:g|f<B e/d/c/B/ f>Bb>B|f<B e/d/c/B/ c<G G>g|f<B e/d/c/B/ f<B b>B|

